X:0301
T:The Marquis of Huntleys Reel.
M:2/4
L:1/8
Q:1/4=104
I: :: ::
Z:Jack Campin * www.campin.me.uk * 2009
K:A Minor
EATA>G|EATA>B|G>AB>c        |d/c/B/A/ GB   |\
EAA>G |EAA>a |gd  e/d/c/B/  |A2       A2  :|
a>bc'a|bgae  |gdeg          |G>ABG         |\
a>bc'a|bgae  |a>b c'/b/a/^g/|a2       aa/b/|
c'abg |aeg>e |dBgB          |G>ABG         |\
EAA>G |EAA>a |gd  e/d/c/B/  |A2       A2  :|

